src/app/components/images/blank_leaderboard.svg

<svg width="343" height="79" viewBox="0 0 343 79" fill="none" xmlns="http://www.w3.org/2000/svg">
<mask id="mask0_65_3" style="mask-type:alpha" maskUnits="userSpaceOnUse" x="7" y="2" width="328" height="66">
<path d="M17.895 2.5H324.472C332.03 2.5 336.561 10.8962 332.414 17.2137L324.81 28.7954C322.514 32.2937 322.514 36.822 324.81 40.3204L332.414 51.902C336.561 58.2195 332.03 66.6157 324.472 66.6157H17.895C10.899 66.6157 6.30282 59.31 9.33113 53.0035L16.0059 39.103C17.3855 36.2299 17.3855 32.8858 16.0059 30.0128L9.33113 16.1122C6.30282 9.80567 10.899 2.5 17.895 2.5Z" fill="#CC44AA" fill-opacity="0.807843" stroke="black"/>
</mask>
<g mask="url(#mask0_65_3)">
<rect x="-31.0805" y="0.0699463" width="426.499" height="84.0735" fill="#F12CDD"/>
<path d="M327.704 15.3187C215.362 -23.0089 87.1147 64.7736 -13.2961 20.6763C-113.707 -23.4211 -13.2961 -23.0089 -13.2961 -23.0089H327.704C327.704 -23.0089 440.045 53.6463 327.704 15.3187Z" fill="#FE72E1" fill-opacity="0.82"/>
<path d="M363.605 37.1612C223.428 63.9174 141.16 65.5408 -14.1796 37.1612L-25.1155 95.6829H363.605V37.1612Z" fill="#D51AF3"/>
</g>
<g filter="url(#filter0_d_65_3)">
<path d="M327.769 2.9548H15.7766C9.92447 2.9548 6.05281 9.03247 8.52634 14.3362L16.1246 30.6282C17.0851 32.6876 17.1244 35.0583 16.2328 37.1484L7.96978 56.5195C5.71862 61.7969 9.59079 67.6584 15.3283 67.6584H328.418C334.566 67.6584 338.417 61.0109 335.357 55.6776L325.233 38.0285C323.762 35.4653 323.824 32.3004 325.395 29.797L334.546 15.2055C337.888 9.87758 334.058 2.9548 327.769 2.9548Z" stroke="#DB25C1" stroke-width="5" shape-rendering="crispEdges"/>
</g>
<defs>
<filter id="filter0_d_65_3" x="0.817047" y="0.454803" width="342.116" height="77.7036" filterUnits="userSpaceOnUse" color-interpolation-filters="sRGB">
<feFlood flood-opacity="0" result="BackgroundImageFix"/>
<feColorMatrix in="SourceAlpha" type="matrix" values="0 0 0 0 0 0 0 0 0 0 0 0 0 0 0 0 0 0 127 0" result="hardAlpha"/>
<feOffset dy="4"/>
<feGaussianBlur stdDeviation="2"/>
<feComposite in2="hardAlpha" operator="out"/>
<feColorMatrix type="matrix" values="0 0 0 0 0 0 0 0 0 0 0 0 0 0 0 0 0 0 0.25 0"/>
<feBlend mode="normal" in2="BackgroundImageFix" result="effect1_dropShadow_65_3"/>
<feBlend mode="normal" in="SourceGraphic" in2="effect1_dropShadow_65_3" result="shape"/>
</filter>
</defs>
</svg>

<svg width="343" height="79" fill="none" xmlns="http://www.w3.org/2000/svg"><mask id="a" style="mask-type:alpha" maskUnits="userSpaceOnUse" x="7" y="2" width="328" height="66"><path d="M17.895 2.5h306.577c7.558 0 12.089 8.396 7.942 14.714l-7.604 11.581a10.503 10.503 0 0 0 0 11.525l7.604 11.582c4.147 6.317-.384 14.714-7.942 14.714H17.895c-6.996 0-11.592-7.306-8.564-13.612l6.675-13.901a10.5 10.5 0 0 0 0-9.09l-6.675-13.9C6.303 9.805 10.9 2.5 17.895 2.5z" fill="#C4A" fill-opacity=".808" stroke="#000"/></mask><g mask="url(#a)"><path fill="#F12CDD" d="M-31.081.07h426.499v84.073H-31.081z"/><path d="M327.704 15.319c-112.342-38.328-240.59 49.455-341 5.357-100.411-44.097 0-43.685 0-43.685h341s112.341 76.655 0 38.328z" fill="#FE72E1" fill-opacity=".82"/><path d="M363.605 37.161c-140.177 26.756-222.445 28.38-377.785 0l-10.936 58.522h388.721V37.16z" fill="#D51AF3"/></g><g filter="url(#b)"><path d="M327.769 2.955H15.777c-5.853 0-9.724 6.077-7.25 11.381l7.598 16.292a8 8 0 0 1 .108 6.52L7.97 56.52c-2.251 5.278 1.62 11.14 7.358 11.14h313.09c6.148 0 9.999-6.648 6.939-11.981l-10.124-17.65a7.997 7.997 0 0 1 .162-8.231l9.151-14.591c3.342-5.328-.488-12.251-6.777-12.251z" stroke="#DB25C1" stroke-width="5" shape-rendering="crispEdges"/></g><defs><filter id="b" x=".817" y=".455" width="342.116" height="77.704" filterUnits="userSpaceOnUse" color-interpolation-filters="sRGB"><feFlood flood-opacity="0" result="BackgroundImageFix"/><feColorMatrix in="SourceAlpha" values="0 0 0 0 0 0 0 0 0 0 0 0 0 0 0 0 0 0 127 0" result="hardAlpha"/><feOffset dy="4"/><feGaussianBlur stdDeviation="2"/><feComposite in2="hardAlpha" operator="out"/><feColorMatrix values="0 0 0 0 0 0 0 0 0 0 0 0 0 0 0 0 0 0 0.25 0"/><feBlend in2="BackgroundImageFix" result="effect1_dropShadow_65_3"/><feBlend in="SourceGraphic" in2="effect1_dropShadow_65_3" result="shape"/></filter></defs></svg>
